X: 6
T: the Bird in the Bush
R: reel
Z: 2012 John Chambers <jc@trillian.mit.edu>
B: "100 Essential Irish Session Tunes" 1995 Dave Mallinson, ed.
M: 4/4
L: 1/8
K: G
B |\
"G"dBeB dB~B2 | "D7"cBAB "G"G2AG | "Am"EA~A2 BG~G2 | "C"BGBd "D"gdBc |\
"G"dBeB dB~B2 | "D7"cBAB "Em"GFGE | "G"DEGA "Em"BABc | "D"dBAc "G"BG G :|
|: A |\
"Em"Bdef g2fg | "D"afdf gfed | "Em"Bdef gfgb | "D"agab "G"g2"B7"ga |\
"Em"bg~g2 "D"agef | "C"gfge "D"dBAB | "G"DEGA BABc | "D"dBAc "G"BG G :|

%%sep 2 1 500
%%sep 1 1 500

